public/images/react.svg

<svg width="54" height="52" viewBox="0 0 54 52" fill="none" xmlns="http://www.w3.org/2000/svg">
<g id="Group 70">
<path id="Vector" d="M26.9966 30.2657C29.5021 30.2657 31.5332 28.2346 31.5332 25.729C31.5332 23.2235 29.5021 21.1924 26.9966 21.1924C24.491 21.1924 22.4599 23.2235 22.4599 25.729C22.4599 28.2346 24.491 30.2657 26.9966 30.2657Z" fill="#61DAFB"/>
<g id="Group">
<path id="Vector_2" d="M26.9965 35.0235C40.4408 35.0235 51.3396 30.8622 51.3396 25.7289C51.3396 20.5957 40.4408 16.4343 26.9965 16.4343C13.5522 16.4343 2.6535 20.5957 2.6535 25.7289C2.6535 30.8622 13.5522 35.0235 26.9965 35.0235Z" stroke="#61DAFB" stroke-width="5"/>
<path id="Vector_3" d="M18.9472 30.3763C25.6693 42.0194 34.7225 49.3773 39.1681 46.8107C43.6136 44.244 41.768 32.7248 35.0459 21.0817C28.3238 9.43859 19.2706 2.08067 14.825 4.64731C10.3795 7.21394 12.225 18.7332 18.9472 30.3763Z" stroke="#61DAFB" stroke-width="5"/>
<path id="Vector_4" d="M18.9472 21.0816C12.225 32.7247 10.3795 44.244 14.825 46.8106C19.2706 49.3772 28.3238 42.0193 35.0459 30.3762C41.768 18.7331 43.6136 7.21389 39.168 4.64725C34.7225 2.08061 25.6693 9.43853 18.9472 21.0816Z" stroke="#61DAFB" stroke-width="5"/>
</g>
</g>
</svg>

<svg xmlns="http://www.w3.org/2000/svg" width="54" height="52" fill="none"><path fill="#61DAFB" d="M26.997 30.266a4.537 4.537 0 1 0 0-9.074 4.537 4.537 0 0 0 0 9.074Z"/><g stroke="#61DAFB" stroke-width="5"><path d="M26.997 35.023c13.444 0 24.343-4.16 24.343-9.294 0-5.133-10.9-9.295-24.344-9.295S2.655 20.596 2.655 25.73s10.898 9.294 24.343 9.294Z"/><path d="M18.947 30.376C25.67 42.02 34.722 49.377 39.168 46.811c4.446-2.567 2.6-14.086-4.122-25.73-6.722-11.642-15.775-19-20.221-16.434-4.445 2.567-2.6 14.086 4.122 25.73Z"/><path d="M18.947 21.082c-6.722 11.643-8.567 23.162-4.122 25.729 4.446 2.566 13.499-4.792 20.22-16.435 6.723-11.643 8.569-23.162 4.123-25.729-4.446-2.566-13.499 4.792-20.22 16.435Z"/></g></svg>
